X:1
T:He’s Coming Soon
T:He’s Coming Soon
T:Hawaiian tune arr. by Thoro Harris
T:Thoro Harris, 1916
T:Public Domain Courtesy of the Cyber Hymnal™
T:Public Domain Courtesy of the Cyber Hymnal™
C:Hawaiian tune arr. by Thoro Harris
Z:Public Domain
Z:Courtesy of the Cyber Hymnal™
%%score ( 1 2 ) ( 3 4 )
L:1/8
Q:1/4=105
M:4/4
K:Ab
V:1 treble 
V:2 treble 
V:3 bass 
V:4 bass 
V:1
 [CE]2 | [Ec]3 [EB] [FA]>[=EG] [FA]>[DF] | [CE]6 [Ec]2 | [EB]3 [E=A] [EB][EB] [Fd]>[Ec] | %4
w: 1.~In|these, the clos- ing days of|time, What|joy the glor- ious hope af-|
w: 2.~The|signs a- round— in earth and|air, Or|paint- ed on the star- lit|
w: 3.~The|dead in Christ who ’neath us|lie, In|count- less num- bers, all shall|
w: 4.~And|we, who liv- ing, yet re-|main, Caught|up, shall meet our faith- ful|
 [EB]6 [DE]2 | [Cc]3 [EB] [FA]>[=EG] [FA]>[DF] | [CE]6 [EA][EG] | %7
w: fords, That|soon— O wond- rous truth sub-|lime! He shall|
w: sky, God’s|faith- ful wit- ness- es— de-|clare That the|
w: rise When|through the por- tals of the|sky He shall|
w: Lord; This|hope we cher- ish not in|vain, But we|
 ([DF][DF])[=DB][FA] [EG][EG] [_Dc]>[DB] | [CA]6- [CA] ||"^Refrain" [CE] | [DF]2 [DA]2 [Fd]3 [DF] | %11
w: reign, * King of kings and Lord of|lords. *|||
w: coming * of the Sav- ior draw- eth|nigh. *|He’s|com- ing soon, He’s|
w: come * to pre- pare our par- a-|dise. *|||
w: comfort * one a- no- ther by this|word. *|||
 [CE]2 [CA]2 [Ec]3 [EA] | [DG]3 [CA] [DB][EB][Gd][Fd] | [Ec]4 [CA]3 [CE] | [DF]2 [DA]2 [Fd]3 [DF] | %15
w: ||||
w: com- ing soon; With|joy we wel- come His re-|turn- ing; It|may be morn, it|
w: ||||
w: ||||
 [CE][CE][EA][EB] [Ec]3 [EA] | [DG]3 [CA] (c B2) [DE] | !fermata!A6 C2 |] %18
w: |||
w: may be night or noon— We|know He’s com- * ing|soon. *|
w: |||
w: |||
V:2
 x2 | x8 | x8 | x8 | x8 | x8 | x8 | x8 | x7 || x | x8 | x8 | x8 | x8 | x8 | x8 | x4 D3 x | %17
 CCDB, x4 |] %18
V:3
 [A,,A,]2 | [A,,A,]3 [C,A,] [D,A,]>[D,B,] [D,A,]>[D,A,] | [A,,A,]6 [A,,A,]2 | %3
w: ~|~ ~ ~ ~ ~ ~|~ ~|
 [E,G,]3 [E,^F,] [E,G,][E,G,] [E,G,]>[E,A,] | [E,G,]6 [E,G,]2 | %5
w: ~ ~ ~ ~ ~ ~|~ ~|
 [A,,A,]3 [C,A,] [D,A,]>[D,B,] [D,A,]>[F,A,] | A,6 [C,A,][C,A,] | %7
w: ~ ~ ~ ~ ~ ~|~ ~ ~|
 ([D,A,][D,A,])[B,,A,][B,,B,] [E,B,][E,B,] [E,G,]>[E,G,] | [A,,A,]6- [A,,A,] || [A,,A,] | %10
w: ~ * ~ ~ ~ ~ ~ ~|~ *|~|
 [D,A,]2 [D,F,]2 [D,A,]3 [D,A,] | [A,,A,]2 [A,,E,]2 [A,,A,]3 [C,A,] | %12
w: ~ ~ ~ ~|~ ~ ~ ~|
 [E,B,]3 [E,A,] [E,G,][E,G,][E,B,][E,G,] | [A,,A,][A,,A,][C,A,][E,A,] A,2 z A, | %14
w: ~ ~ ~ ~ the re-|turn- ing of the Lord; ~|
 [D,A,]2 [D,F,]2 [D,A,]3 [D,A,] | [A,,A,][A,,A,][C,A,][E,G,] A,3 [A,C] | %16
w: ~ ~ ~ ~|~ ~ ~ ~ ~ ~|
 [E,B,]3 [F,A,] [E,G,]3 [E,B,] | A,E,F,F, E,2 x2 |] %18
w: ~ our king is|com- ing ver- y soon.|
V:4
 x2 | x8 | x8 | x8 | x8 | x8 | A,6 x2 | x8 | x7 || x | x8 | x8 | x8 | x4 A,2 A, x | x8 | x4 A,3 x | %16
 x8 | A,,6 x2 |] %18

